docs/images/roadmap/icons/afternoon-icon.svg

<svg width="32" height="32" viewBox="0 0 32 32" fill="none" xmlns="http://www.w3.org/2000/svg">
<path d="M16 12.0049C16.7911 12.0049 17.5645 12.2395 18.2223 12.679C18.8801 13.1185 19.3928 13.7432 19.6955 14.4741C19.9983 15.2051 20.0775 16.0093 19.9231 16.7852C19.7688 17.5612 19.3878 18.2739 18.8284 18.8333C18.269 19.3927 17.5563 19.7737 16.7804 19.928C16.0044 20.0824 15.2002 20.0032 14.4693 19.7004C13.7384 19.3977 13.1136 18.885 12.6741 18.2272C12.2346 17.5694 12 16.796 12 16.0049C12.0013 14.9444 12.4232 13.9278 13.173 13.1779C13.9229 12.4281 14.9395 12.0062 16 12.0049ZM16 10.0049C14.8133 10.0049 13.6533 10.3568 12.6666 11.0161C11.6799 11.6754 10.9108 12.6124 10.4567 13.7088C10.0026 14.8051 9.88378 16.0115 10.1153 17.1754C10.3468 18.3393 10.9182 19.4084 11.7574 20.2475C12.5965 21.0866 13.6656 21.6581 14.8295 21.8896C15.9933 22.1211 17.1997 22.0023 18.2961 21.5482C19.3925 21.094 20.3295 20.325 20.9888 19.3383C21.6481 18.3516 22 17.1916 22 16.0049C22 14.4136 21.3679 12.8875 20.2426 11.7622C19.1174 10.637 17.5913 10.0049 16 10.0049ZM5.394 6.81288L6.81 5.39888L10.315 8.90488L8.9 10.3189L5.394 6.81288ZM2 15.0049H7V17.0049H2V15.0049ZM5.394 25.1979L8.9 21.6919L10.314 23.1059L6.809 26.6119L5.394 25.1979ZM15 25.0049H17V30.0049H15V25.0049ZM21.687 23.1049L23.101 21.6909L26.607 25.1969L25.193 26.6109L21.687 23.1049ZM25 15.0049H30V17.0049H25V15.0049ZM21.687 8.90388L25.193 5.39788L26.607 6.81188L23.101 10.3179L21.687 8.90388ZM15 2.00488H17V7.00488H15V2.00488Z" fill="#BC002D"/>
</svg>

<svg width="32" height="32" fill="none" xmlns="http://www.w3.org/2000/svg"><path d="M16 12.005a4 4 0 1 1 0 8 4 4 0 0 1 0-8Zm0-2a6 6 0 1 0 0 12 6 6 0 0 0 0-12ZM5.394 6.813 6.81 5.399l3.505 3.506L8.9 10.319 5.394 6.813ZM2 15.005h5v2H2v-2Zm3.394 10.193L8.9 21.692l1.414 1.414-3.505 3.506-1.415-1.414ZM15 25.005h2v5h-2v-5Zm6.687-1.9 1.414-1.414 3.506 3.506-1.414 1.414-3.506-3.506Zm3.313-8.1h5v2h-5v-2Zm-3.313-6.101 3.506-3.506 1.414 1.414-3.506 3.506-1.414-1.414ZM15 2.004h2v5h-2v-5Z" fill="#BC002D"/></svg>
